theme-base/src/main/assets/themes/mapsforgeV3/base/symbols/db_poi_watermill.svg

<svg enable-background="new 0 0 48 48" height="48" viewBox="0 0 48 48" width="48" xmlns="http://www.w3.org/2000/svg"><path d="m44 42c-2.221 0-3.46-.74-4.359-1.28-.741-.44-1.202-.72-2.301-.72-1.119 0-1.561.26-2.3.72-.92.54-2.14 1.28-4.36 1.28s-3.459-.74-4.359-1.28c-.74-.439-1.2-.72-2.3-.72-1.12 0-1.56.26-2.3.72-.921.54-2.161 1.28-4.381 1.28s-3.46-.74-4.36-1.28c-.74-.46-1.2-.72-2.3-.72s-1.56.26-2.3.72c-.92.54-2.16 1.28-4.38 1.28v-4c1.12 0 1.56-.26 2.3-.72.92-.54 2.16-1.28 4.38-1.28s3.46.74 4.36 1.28c.74.46 1.18.72 2.3.72s1.56-.26 2.3-.72c.92-.54 2.16-1.28 4.38-1.28s3.46.74 4.36 1.28c.74.439 1.2.72 2.3.72s1.561-.26 2.301-.72c.899-.54 2.139-1.28 4.359-1.28 2.221 0 3.46.74 4.36 1.28.739.46 1.18.72 2.3.72z"/><path d="m39.862 23c-.365-2.919-1.515-5.588-3.233-7.8l1.514-1.514-2.829-2.829-1.514 1.514c-2.211-1.719-4.881-2.868-7.8-3.233v-2.138h-4v2.138c-2.918.365-5.588 1.515-7.8 3.233l-1.514-1.514-2.829 2.829 1.514 1.514c-1.719 2.211-2.869 4.881-3.233 7.8h-2.138v4h2.138c.225 1.799.75 3.502 1.521 5.063.318-.037.652-.063 1.021-.063 2.22 0 3.46.74 4.36 1.28.74.46 1.18.72 2.3.72.191 0 .357-.01.514-.025l4.146-4.147v2.413c.571-.145 1.231-.241 2.02-.241.771 0 1.418.093 1.98.232v-2.404l4.141 4.142c.164.017.338.03.539.03 1.1 0 1.561-.26 2.301-.72.899-.54 2.139-1.28 4.359-1.28.362 0 .689.025 1.003.061.77-1.56 1.295-3.263 1.52-5.061h2.137v-4zm-13.862-9.819c1.818.307 3.497 1.02 4.941 2.049l-4.941 4.941zm-4 0v6.991l-4.94-4.94c1.444-1.031 3.122-1.744 4.94-2.051zm-7.77 18.76c-1.029-1.444-1.742-3.123-2.049-4.941h6.991zm-2.049-8.941c.308-1.818 1.021-3.496 2.05-4.94l4.94 4.94zm11.819 4c-1.657 0-3-1.345-3-3 0-1.657 1.343-3 3-3 1.655 0 3 1.343 3 3 0 1.655-1.345 3-3 3zm9.771 4.941-4.943-4.941h6.991c-.306 1.818-1.019 3.498-2.048 4.941zm-4.943-8.941 4.941-4.941c1.029 1.444 1.742 3.123 2.05 4.941z"/></svg>

<?xml version="1.0" encoding="utf-8"?>
<!-- Generator: Adobe Illustrator 15.0.2, SVG Export Plug-In . SVG Version: 6.00 Build 0)  -->
<!DOCTYPE svg PUBLIC "-//W3C//DTD SVG 1.1//EN" "http://www.w3.org/Graphics/SVG/1.1/DTD/svg11.dtd">
<svg version="1.1" id="Vrstva_3" xmlns="http://www.w3.org/2000/svg" xmlns:xlink="http://www.w3.org/1999/xlink" x="0px" y="0px"
	 width="48px" height="48px" viewBox="0 0 48 48" enable-background="new 0 0 48 48" xml:space="preserve">
<path d="M44,42c-2.221,0-3.46-0.74-4.359-1.28C38.9,40.28,38.439,40,37.34,40c-1.119,0-1.561,0.26-2.3,0.72
	C34.12,41.26,32.9,42,30.68,42c-2.22,0-3.459-0.74-4.359-1.28c-0.74-0.439-1.2-0.72-2.3-0.72c-1.12,0-1.56,0.26-2.3,0.72
	C20.8,41.26,19.56,42,17.34,42c-2.22,0-3.46-0.74-4.36-1.28c-0.74-0.46-1.2-0.72-2.3-0.72c-1.1,0-1.56,0.26-2.3,0.72
	C7.46,41.26,6.22,42,4,42v-4c1.12,0,1.56-0.26,2.3-0.72C7.22,36.74,8.46,36,10.68,36c2.22,0,3.46,0.74,4.36,1.28
	c0.74,0.46,1.18,0.72,2.3,0.72c1.12,0,1.56-0.26,2.3-0.72C20.56,36.74,21.8,36,24.02,36s3.46,0.74,4.36,1.28
	c0.74,0.439,1.2,0.72,2.3,0.72s1.561-0.26,2.301-0.72C33.88,36.74,35.12,36,37.34,36c2.221,0,3.46,0.74,4.36,1.28
	C42.439,37.74,42.88,38,44,38V42z"/>
<g>
	<g>
		<path d="M39.862,23c-0.365-2.919-1.515-5.588-3.233-7.8l1.514-1.514l-2.829-2.829L33.8,12.371c-2.211-1.719-4.881-2.868-7.8-3.233
			V7h-4v2.138c-2.918,0.365-5.588,1.515-7.8,3.233l-1.514-1.514l-2.829,2.829l1.514,1.514c-1.719,2.211-2.869,4.881-3.233,7.8H6v4
			h2.138c0.225,1.799,0.75,3.502,1.521,5.063C9.977,32.026,10.311,32,10.68,32c2.22,0,3.46,0.74,4.36,1.28
			c0.74,0.46,1.18,0.72,2.3,0.72c0.191,0,0.357-0.01,0.514-0.025L22,29.828v2.413C22.571,32.096,23.231,32,24.02,32
			c0.771,0,1.418,0.093,1.98,0.232v-2.404l4.141,4.142C30.305,33.987,30.479,34,30.68,34c1.1,0,1.561-0.26,2.301-0.72
			C33.88,32.74,35.12,32,37.34,32c0.362,0,0.689,0.025,1.003,0.061c0.77-1.56,1.295-3.263,1.52-5.061H42v-4H39.862z M26,13.181
			c1.818,0.307,3.497,1.02,4.941,2.049L26,20.171V13.181z M22,13.181v6.991l-4.94-4.94C18.504,14.201,20.182,13.488,22,13.181z
			 M14.23,31.941c-1.029-1.444-1.742-3.123-2.049-4.941h6.991L14.23,31.941z M12.181,23c0.308-1.818,1.021-3.496,2.05-4.94
			l4.94,4.94H12.181z M24,27c-1.657,0-3-1.345-3-3c0-1.657,1.343-3,3-3c1.655,0,3,1.343,3,3C27,25.655,25.655,27,24,27z
			 M33.771,31.941L28.828,27h6.991C35.513,28.818,34.8,30.498,33.771,31.941z M28.828,23l4.941-4.941
			c1.029,1.444,1.742,3.123,2.05,4.941H28.828z"/>
	</g>
</g>
</svg>
